X:1
T:Si mon traveil
T:Si mon traveil
T:Thomas Crecquillon
C:Thomas Crecquillon
%%score [ 1 2 3 4 ]
L:1/8
Q:1/4=84
M:2/2
K:F
V:1 treble nm="Superius" snm="S"
V:2 treble nm="Altus" snm="A"
V:3 treble-8 nm="Tenor" snm="T"
V:4 bass nm="Bass" snm="B"
V:1
 A4 c2 d2 | G2 A2 B2 d2 | c2 B2 A4 | GA Bc de f2 | e2 d4 c2 | B2 A4 G2- | G2 F2 G4 | z2 D2 G2 G2 | %8
w: Si mon tra-|veil vous ve- noit|à plai- *|sir, _ _ _ _ _ _|_ _ _|||re- che- vant|
 F4 G2 B2- | BA A2 B2 F2 | c4 B2 A2 | GA Bc de f2- | fe d4 c2 | d2 A2 c2 d2 | G2 A2 B2 d2 | %15
w: d'aul- tre plus|_ _ de _ con-|ten- * *||* * * te-|ment, ne crai- gnez|plus me fai- re|
 c2 B2 A4 | GA Bc de f2 | e2 d4 c2 | B2 A3 G G2- | G2 F2 G4 | z2 D2 G2 G2 | F2 F2 G2 B2- | %22
w: des- * plai-||||* * sir,|mais en lais-|sez à mes ieulx|
 BA A2 B2 F2 | c4 B2 A2 | GA Bc de f2- | fe d4 c2 | d2 f2 f2 f2 | c2 c2 c2 A2 | B2 c3 B A2- | %29
w: _ _ le- _ _|_ _ _||* * * tour-|ment, puis que du|mal sont les com-|men- * * *|
 A2 G2 A2 f2 | e2 d4 c2- | c2 B4 AG | A4 z2 A2 | A2 A2 BA Bc | d2 c4 B2- | B2 A2 B4 | z2 B4 B2 | %37
w: * ce- ments, c'est|bien _ _|_ rai- * *|son, qu'ilz|en seuf- frent _ _ _|_ la pai-|* * ne,|plou- rez|
 A2 A4 B2 | B2 B2 B2 B2 | A4 G4 | F2 f2 e2 d2 | c2 B2 A4- | A4 B4 |: B2 B2 A2 F2 | A3 B c2 d2 | %45
w: donc, plou- rez|donc, po- vres ieulx,|dou- ce-|ment, po- vres ieulx|dou- ce- ment,|_ le|dueil is- su de|la joy- e'in- cer-|
 e4 f3 e | d2 c2 B2 A2- | A2 G4 F2 |[M:2/4] G2 B2 :|[M:2/2] G8 |] %50
w: tai- * *|||ne, le|ne.|
V:2
 z8 | z4 z2 D2 | F2 G2 C2 D2 | EFGE FG A2 | G2 F2 E4 | D2 F4 D2 | E2 D2 C2 B,2 |"^b" E2 D4 C2 | %8
w: |Si|mon tra- veil vous|peult _ _ _ _ _ _|don- ner _|_ _ _||* * plai-|
 D8 | z2 A,2 D2 D2 | C4 D2 F2 | E2 D2 G2 A2 | F2 G2 A4 | F4 z2 D2 | E2 F2 D2 D2 | F2 G2 C2 D2 | %16
w: sir|re- che- vant|d'aul- tre plus|de con- ten- *|* * te-|ment, ne|crai- gnez pas, ne|crai- gnez pas me|
 EFGE FG A2 | G2 F2 E4 | D2 F4 D2 | E2 D2 C2 B,2 |"^b" E2 D4 C2 | D8 | z2 A,2 D2 D2 | C3 C D2 F2 | %24
w: fai- * * * * * *|re des- plai-|sir, me _|fai- * * *|re des- plai-|sir,|mais en lais-|sez à mes ieulx|
 E2 D2 G2 A2 | F2 G2 A4 | F4 z2 A2 | A2 A2 A2 F2- | F2 A3 G F2- | F2 E2 F2 A2 | G2 A4 A2 | F4 F4- | %32
w: le- _ _ _|_ _ tour-|ment, puis|que du mal sont|_ les com- men-|* ce- ments, c'est|bien _ rai-|* son,|
 F4 z2 F2 | F2 F2 D2 G2 | A2 G2 F2 E2 | F4 z2 F2- | F2 G2 G4 | F6 F2 | F2 F2 G2 F2 | F2 F2 D4- | %40
w: _ qu'ilz|en seuf- frent la|pai- * * *|ne, plou-|* rez donc,|plou- rez|donc, po- vres ieulx,|dou- ce- ment,|
 D4 z2 A2- | A2 G2 F2 E2 | F4 D2 B,2 |: B,CDE F2 F2 | F2 F2 E2 D2- | D2 C2 D4- | D2 F2 F3 E | %47
w: _ po-|* vres ieulx dou-|ce- ment, le|dueil _ _ _ _ is-|su de la joy-|* e'in- cer-|* * tai- *|
"^b" D2 E2 D4 |[M:2/4] B,2 B,2 :|[M:2/2] D8 |] %50
w: |ne, le|ne.|
V:3
 z8 | z8 | z8 | z4 z2 A2 | c2 d2 G2 A2 | B2 d2 c2 B2 | A4 G4- | G2 B4 AG | A4 z2 G2 | c2 c2 B3 A | %10
w: |||Si|mon tra- veil vous|peult don- ner plai-|sir, _|_ _ _ _|* re-|che- vant d'aul- *|
 F4 z2 c2 | c2 B4 c2 | d3 e f2 e2 | d4 c2 B2 | c4 B4 | z8 | z4 z2 A2 | c2 d2 G2 A2 | B2 d2 c2 B2 | %19
w: tre, re-|che- vant _|d'aul- tre plus de|con ten- *|te- ment,||ne|crai- gnez pas me|fai- re des _|
 A4 G4- | G2 B4 AG | A4 z2 G2 | c2 c2 B3 A | F4 z2 c2 | c2 B4 c2 | d3 e f2 e2 | d4 z2 f2 | %27
w: plai- *||sir, mais|en lais- sez _|_ à-|mes ieulx _|le _ _ tour-|ment, puis|
 f2 f2 c2 c2 | d2 c2 A2 c2 | B4 A3 B | c2 f4 e2 | d4 c4 | z2 c2 c2 c2 | d2 c2 Bc de | f2 e2 d2 cB | %35
w: que du mal sont|les com- men- ce-|ments, c'est _|_ bien rai-|* son,|qu'ilz en seuf-|frent la pai- * * *||
 c4 B2 d2- | d2 _e2 e4 | c6 d2 | d2 d2 d2 d2 | c4 B4 | A3 B c2 d2 |"^#" A2 d4 c2 | d8 |: %43
w: * ne, plou-|* rez donc,|plou- rez|donc, po- vres ieulx,|dou- ce-|ment, _ _ dou-|* * ce-|ment,|
 z2 d2 d2 d2 | c2 c2 c2 A2- | A2 G2 A4 | B2 c2 d3 c | B2 c2 A4 |[M:2/4] G4 :|[M:2/2] G8 |] %50
w: le dueil is-|su de la joy-|* e'in- cer-|tai- * * *||ne,|ne.|
V:4
 z8 | z8 | z8 | z8 | z8 | z2 D,2 F,2 G,2 | C,2 D,2 _E,3 D, |"^b" C,2 B,,2 E,4 | D,2 D,2 G,2 G,2 | %9
w: |||||Si mon tra-|veil vous peult don-|ner _ plai-|sir, re- che- vant|
 F,4 G,2 B,2- | B,A, A,2 G,2 F,2 | C,2 G,4 F,2 | B,4 A,4 | D,E, F,G, A,2 G,2- | G,2 F,2 G,4 | z8 | %16
w: d'aul- tre plus|_ _ de _ con-|ten- * *|||* te- ment,||
 z8 | z8 | z2 D,2 F,2 G,2 |"^b" C,2 D,2 E,3 D, |"^b" C,2 B,,2 E,4 |"^#" D,2 D,2 G,2 G,2 | %22
w: ||ne crai- gnez|pas me fai- *|* re des-|* plai- sir, mais|
 F,4 G,2 B,2- | B,2 A,2 G,2 F,2 | C,2 G,4 F,2 | B,4 A,4 | D,8 | z2 F,2 F,2 F,2 | B,,2 F,2 F,2 F,2 | %29
w: lais- sez à|_ mes ieulx le-|_ _ _|* tour-|ment,|puis que du|mal sont les com-|
 G,2 G,2 D,4 | z2 D,2 A,4 | B,4 F,4- | F,4 z2 F,2 | F,2 F,2 G,3 F, | D,2 E,2 F,2 G,2 | %35
w: men- ce- ments,|c'est bien|rai- son,|_ qu'ilz|en seuf- frent la|pai- * * *|
 F,4 B,,2 B,2- | B,2 _E,2 E,4 | F,6 B,,2 | B,,2 B,2 G,2 B,2 | F,4 G,4 | D,2 D,2 A,2 D,2 | %41
w: * ne, plou-|* rez donc,|plou- rez|donc, po- vres ieulx,|dou- ce-|ment, po- vres ieulx|
 F,2 G,2 A,4 | D,4 z2 G,2 |:"^#" G,2 G,2 F,2 D,2 | F,3 G, A,2 F,2 | E,4 D,2 F,2 | G,2 A,2 B,2 F,2 | %47
w: dou- * ce-|ment, le|dueil is- su de|la joy- e'in- cer-|tai- * *||
 G,2 C,2 D,4 |[M:2/4] z2 G,2 :|[M:2/2] G,8 |] %50
w: * * ne,|le|ne.|

